images/foodle/icons/Icon-03-Information-Architecture.svg

<svg width="125" height="125" viewBox="0 0 125 125" fill="none" xmlns="http://www.w3.org/2000/svg">
<path d="M96.0257 42.1746C97.0833 44.1038 98.9145 43.1147 100.197 42.9189C102.479 42.5761 103.194 43.4379 103.644 45.4355C104.447 49.0098 105.407 52.5449 106.416 56.0605C106.807 57.4314 106.582 58.2148 105.231 58.7632C104.007 59.2528 102.841 59.9089 101.676 60.5259C100.403 61.2016 100.354 61.9752 101.607 62.739C102.068 63.023 102.567 63.258 103.047 63.5126C107.062 65.5984 107.062 65.5984 105.848 69.9953C105.084 72.7764 104.261 75.5379 103.586 78.3385C103.184 80.0033 102.597 80.9727 100.599 80.4733C99.3356 80.16 97.9647 80.2775 96.6427 80.1893C95.164 80.0914 94.9877 80.679 95.7417 81.8247C96.6427 83.1858 97.4652 84.6058 98.4053 85.9473C99.032 86.8385 99.1496 87.475 98.2486 88.3367C95.1444 91.2941 92.1087 94.3396 89.0828 97.3851C88.4169 98.0607 87.8881 98.1587 87.0851 97.5711C85.6358 96.5233 84.0788 95.6126 82.5903 94.6138C81.5327 93.9087 81.19 94.3396 81.2488 95.4168C81.3467 97.2871 81.4054 99.1575 81.5915 101.018C81.6894 102.027 81.2879 102.389 80.387 102.614C76.3133 103.652 72.2396 104.72 68.1855 105.816C67.03 106.13 66.3249 105.924 65.7961 104.739C64.9735 102.908 63.9845 101.165 62.8387 98.9421C61.6539 101.165 60.5865 103.006 59.6758 104.925C59.1567 106.012 58.6769 106.384 57.3843 105.993C53.4379 104.788 49.4523 103.721 45.457 102.712C44.2133 102.399 43.802 101.939 44.0077 100.636C44.2329 99.2554 44.1448 97.8355 44.2035 96.4352C44.2819 94.5158 43.567 94.3494 42.2352 95.5441C41.8239 95.5832 41.4812 95.7203 41.3539 96.161L41.3931 96.1414C41.0797 96.1218 40.874 96.2295 40.8643 96.5821L40.8838 96.5723C40.1788 96.4646 39.6794 96.9248 39.2485 97.3263C37.6719 98.7756 36.5947 98.2762 35.2825 96.7975C33.1281 94.3592 30.8171 92.0285 28.369 89.884C26.7728 88.4934 26.1069 87.191 27.2624 85.2912L27.2526 85.301C27.6443 85.3402 27.7226 85.1052 27.6933 84.782L27.6835 84.8114C28.2025 84.6939 28.3102 84.2826 28.3494 83.8419C28.7509 83.0781 29.9456 82.6668 29.4363 81.4917C28.8586 80.1893 27.6835 80.7181 26.763 80.7475C22.2486 80.9042 22.2486 80.9336 21.0637 76.429C20.3097 73.5696 19.6438 70.6808 18.7625 67.8605C18.312 66.4112 18.4197 65.5397 19.9865 65.0402C20.8679 64.7563 21.6806 64.247 22.4934 63.7868C23.9525 62.9544 23.9819 61.4464 22.5816 60.5944C22.513 60.5553 22.4347 60.5357 22.3661 60.4965C18.1161 58.1071 18.1161 58.1071 19.3892 53.4557C20.153 50.6746 21.0049 47.9229 21.6513 45.1124C21.994 43.6239 22.6109 42.958 24.1679 43.3497C24.7653 43.4966 25.4116 43.4672 26.0285 43.5358C26.949 43.6337 27.6345 43.4379 28.085 42.4782C28.5158 41.5871 28.7215 40.9212 28.1046 39.9321C25.9306 36.4264 25.9698 36.3872 28.888 33.4984C31.1011 31.3049 33.4121 29.1995 35.5469 26.9178C36.6241 25.7721 37.3879 25.7329 38.6707 26.6045C39.5814 27.2214 40.2767 28.5826 41.8827 27.9069C43.5768 27.192 43.9979 25.9581 43.6551 24.3718C43.1655 22.1195 44.0958 21.2283 46.2697 20.7877C49.7755 20.0728 53.2518 19.1621 56.6694 18.1045C58.246 17.6149 59.0001 18.0262 59.4995 19.4363C59.6268 19.7986 59.8618 20.1218 60.0087 20.4841C60.4102 21.4438 60.8019 22.1782 62.1337 22.1978C63.4655 22.2076 64.0628 21.669 64.6308 20.6016C66.2955 17.4386 66.3347 17.4484 69.7425 18.3885C72.8957 19.26 76.0097 20.2785 79.2021 20.9835C80.8668 21.3556 81.4054 22.0509 81.1508 23.6765C80.8473 25.635 80.6808 27.6033 83.1583 28.4063C82.2084 30.0416 80.7787 31.2265 79.3392 32.3919C76.8225 31.1776 74.5017 29.8654 75.5789 26.3792C75.7649 25.7819 75.3145 25.4489 74.6682 25.2923C73.1601 24.9299 71.6618 24.4697 70.1734 24.029C69.4096 23.8038 68.7241 23.8332 68.4988 24.7341C67.7057 27.8187 65.5513 27.9558 62.9465 27.5054C61.8203 27.3095 60.606 27.4662 59.4505 27.6327C58.1873 27.8187 57.2374 27.5347 56.9143 26.2519C56.3169 23.8234 54.7991 23.8625 52.9189 24.6068C52.488 24.7732 52.018 24.9103 51.5675 24.9495C49.5111 25.1258 48.6787 26.1834 49.1586 28.2006C49.4523 29.4541 49.0802 30.2179 47.8268 30.7467C45.8878 31.5595 44.086 32.6856 42.4311 33.9783C41.6477 34.5854 40.9622 34.8596 40.2082 34.0762C38.328 32.1373 36.8101 32.7248 35.3706 34.6539C34.8614 35.3394 34.1955 35.9074 33.559 36.4754C32.9225 37.0335 32.7168 37.6015 33.3534 38.238C35.449 40.3238 34.7831 42.2432 33.2163 44.2996C32.4329 45.3278 31.953 46.6204 31.4536 47.8445C31.0619 48.8042 30.396 49.2742 29.4657 48.9902C26.528 48.0991 25.5977 49.6463 25.3137 52.1826C25.2353 52.8681 25.0493 53.5732 24.7457 54.1999C24.2365 55.2673 24.6576 55.8646 25.627 56.129C28.4865 56.932 29.2307 58.9003 28.79 61.5933C28.7019 62.1221 28.6823 62.7292 28.8586 63.2188C29.7399 65.7453 28.6529 67.1065 26.3223 67.9193C25.5389 68.1934 24.403 68.3599 24.8338 69.7896C25.3137 71.3564 25.6564 72.9526 26.0481 74.539C26.2244 75.2735 26.7042 75.6358 27.4093 75.4301C31.15 74.3138 33.1575 76.2429 34.5089 79.3961C34.6852 79.8172 34.9887 80.2187 35.3217 80.5419C36.3009 81.4819 36.1149 82.2849 35.3804 83.3621C33.0302 86.8287 33.0792 86.8679 36.0463 89.8938C36.3205 90.1679 36.6339 90.4226 36.8591 90.7359C37.574 91.6956 38.3574 91.7347 39.1995 90.9318C41.8239 88.4542 44.5169 88.1996 47.3273 90.6184C47.5036 90.7653 47.7288 90.873 47.9541 90.9318C49.5111 91.343 49.8734 92.3027 49.7657 93.8793C49.4719 98.2762 49.5992 98.1489 53.7611 99.4709C55.8175 100.127 56.7967 99.608 57.3745 97.6984C58.2265 94.8782 59.9891 93.9675 63.0346 93.9675C65.7276 93.9675 67.2454 94.604 68.0092 97.1207C68.1855 97.7082 68.6164 98.2174 68.822 98.7952C69.1549 99.7157 69.6642 99.8528 70.6238 99.6569C75.9902 98.5406 75.9902 98.57 75.9216 93.1351C75.9216 92.8217 75.9412 92.5084 75.9118 92.195C75.8433 91.4997 76.1273 91.108 76.7344 90.7065C81.4838 87.5729 81.5034 87.5044 86.145 90.5694C87.2418 91.2941 87.8685 91.2451 88.6421 90.305C89.0828 89.7664 89.5626 89.2083 90.1306 88.8166C92.285 87.3183 92.471 85.7123 90.6692 83.7734C89.0338 82.0107 89.0926 80.4439 90.3558 78.1329C91.9716 75.1853 93.793 74.1963 96.9071 74.8916C97.5534 75.0384 98.611 75.5085 98.9635 74.5194C99.6098 72.6882 100.07 70.7885 100.56 68.9083C100.736 68.2228 100.139 67.8997 99.649 67.7528C95.9572 66.6658 94.4002 64.3743 95.4284 60.5357C95.4871 60.3202 95.4675 60.0558 95.399 59.8404C94.929 58.2638 95.6438 57.4804 97.0539 56.8145C100.628 55.1106 100.599 55.0518 99.5706 51.2327C99.5315 51.0858 99.4629 50.9292 99.4629 50.7823C99.3454 48.6573 98.1605 48.0012 96.2118 48.4517C94.1456 48.9315 92.5885 48.4908 91.9422 46.2483C93.1369 44.7207 94.4589 43.3204 96.0257 42.1746Z" fill="#2D3238"/>
<path d="M96.0255 42.1743C94.4587 43.3299 93.1465 44.7302 91.9322 46.2383C87.9858 49.8909 84.1471 53.6512 80.5533 57.6564C78.6633 59.1448 76.9888 60.8487 75.4905 62.7289C71.5147 66.3032 67.7446 70.0929 64.1507 74.0491C57.4428 75.8216 49.834 68.8884 50.2845 61.4265C54.6519 57.392 58.853 53.2008 62.8777 48.8333C64.6208 47.4525 66.1876 45.8857 67.5683 44.1426C71.6616 40.4019 75.5786 36.4751 79.3292 32.3916C80.7687 31.2263 82.1984 30.0414 83.1483 28.406C86.5071 25.8697 89.1413 22.5892 92.177 19.7298C93.8124 18.1924 95.3792 16.5766 96.9754 15C101.372 19.2989 105.759 23.5979 110.156 27.887C105.426 32.6168 100.52 37.1899 96.0255 42.1743Z" fill="#F9C686"/>
<path d="M27.2527 85.2719C26.0972 87.1815 26.7729 88.4741 28.3593 89.8646C30.8074 92.0092 33.1184 94.3398 35.2728 96.7782C36.585 98.2569 37.6622 98.7563 39.2388 97.307C39.6697 96.9153 40.1691 96.4452 40.8741 96.553C40.9721 97.2189 40.4335 97.5126 40.0711 97.875C34.744 103.202 29.3973 108.51 24.0603 113.827C23.4728 113.21 22.8852 112.603 22.2977 111.986C18.6646 108.177 14.6693 104.72 11.2712 100.676C16.099 95.8283 20.9169 90.981 25.7544 86.1533C26.1657 85.7518 26.4595 85.0565 27.2527 85.2719Z" fill="#F9C686"/>
<path d="M110.156 27.8679C105.759 23.5689 101.372 19.2798 96.9753 14.9808C100.403 10.9561 104.359 7.45037 108.041 3.67045C109.637 2.03509 109.862 4.66929 110.959 4.66929C113.936 7.88125 116.864 11.1324 120.321 13.8547C122.181 15.6565 121.515 16.9198 119.753 18.4866C116.423 21.4635 113.348 24.7244 110.156 27.8679ZM109.578 20.5528C110.078 20.2884 110.303 20.2199 110.45 20.073C111.743 18.7412 113.466 17.5857 114.132 15.9895C114.484 15.1473 112.438 14.0212 111.517 12.9832C111.155 12.5719 110.685 12.2487 110.381 11.8179C109.363 10.3881 108.58 10.4763 107.355 11.7689C104.349 14.9515 104.29 14.8633 107.326 17.948C108.139 18.7804 108.854 19.7107 109.578 20.5528Z" fill="#2A2F36"/>
<path d="M11.281 100.685C14.679 104.729 18.6744 108.186 22.3074 111.995C22.895 112.612 23.4825 113.229 24.0701 113.836C16.1969 117.558 8.32367 121.279 0.450458 125C0.303569 124.814 0.156681 124.628 0 124.442C1.11635 122.023 2.19353 119.594 3.35885 117.205C6.03221 111.711 8.18658 105.973 11.281 100.685ZM16.7159 111.388C13.925 107.432 13.7585 107.432 11.8784 111.496C11.5454 112.221 11.2516 112.955 10.8012 113.993C13.122 113.308 14.9043 112.358 16.7159 111.388Z" fill="#2D3238"/>
<path d="M120.321 13.8546C116.864 11.1323 113.936 7.88116 110.959 4.6692C117.158 -1.85264 115.112 -1.09862 120.732 4.18936C121.868 5.25675 122.946 6.39269 124.052 7.48945C125.002 8.42954 125.061 9.34025 124.033 10.2901C122.779 11.4652 121.555 12.6697 120.321 13.8546Z" fill="#F34213"/>
<path d="M28.3402 83.8223C28.301 84.2727 28.1933 84.6742 27.6743 84.7917C27.5274 84.2238 27.9191 84.0083 28.3402 83.8223Z" fill="#D9A349"/>
<path d="M41.3538 96.1511C41.4811 95.7105 41.8238 95.5733 42.2351 95.5342C42.0686 95.9161 41.8434 96.2197 41.3538 96.1511Z" fill="#D9A349"/>
<path d="M27.6834 84.7621C27.7128 85.0852 27.6344 85.3104 27.2427 85.2811C27.1154 84.8796 27.3015 84.7425 27.6834 84.7621Z" fill="#D9A349"/>
<path d="M40.8645 96.5723C40.8743 96.2197 41.0799 96.112 41.3933 96.1316C41.3737 96.4646 41.2268 96.6408 40.8645 96.5723Z" fill="#D9A349"/>
<path d="M79.329 32.3722C75.5784 36.4557 71.6614 40.3825 67.5681 44.1233C65.4431 43.4672 63.2692 43.3889 61.0757 43.5945C51.4692 44.4954 43.4784 52.9562 44.8102 63.5615C46.2008 74.5977 56.2479 81.5309 66.5595 79.3961C75.4707 77.5551 82.7466 68.3403 80.5433 57.6468C84.1371 53.6417 87.9758 49.8813 91.9222 46.2287C92.5685 48.4712 94.1255 48.9119 96.182 48.432C98.1307 47.9718 99.3156 48.6377 99.4331 50.7627C99.4429 50.9193 99.5016 51.0662 99.5408 51.2131C100.569 55.0224 100.598 55.091 97.0241 56.7949C95.6238 57.4608 94.8991 58.2442 95.3692 59.8208C95.4377 60.0362 95.4573 60.3006 95.3986 60.516C94.3703 64.3547 95.9274 66.6462 99.6192 67.7332C100.119 67.88 100.716 68.2032 100.53 68.8887C100.04 70.7688 99.58 72.6784 98.9337 74.4998C98.5811 75.4889 97.5236 75.0188 96.8772 74.8719C93.7632 74.1767 91.9418 75.1657 90.326 78.1133C89.053 80.4341 89.004 82.0009 90.6394 83.7538C92.4412 85.6927 92.2552 87.2987 90.1008 88.797C89.5328 89.1887 89.053 89.7468 88.6123 90.2854C87.8485 91.2255 87.2218 91.2843 86.1152 90.5498C81.4834 87.4847 81.454 87.5533 76.7046 90.6869C76.0974 91.0884 75.8037 91.4703 75.882 92.1754C75.9114 92.4887 75.882 92.8021 75.8918 93.1155C75.9604 98.5503 75.9506 98.521 70.594 99.6373C69.6441 99.8332 69.1251 99.7059 68.7922 98.7756C68.5866 98.1978 68.1557 97.6886 67.9794 97.101C67.2156 94.5844 65.7075 93.9478 63.0048 93.9478C59.9495 93.9478 58.1869 94.8585 57.3447 97.6788C56.7669 99.5883 55.7877 100.107 53.7312 99.4512C49.5694 98.1195 49.4421 98.2566 49.7359 93.8597C49.8436 92.2733 49.4715 91.3136 47.9243 90.9121C47.699 90.8534 47.4738 90.7457 47.2975 90.5988C44.4871 88.18 41.7941 88.4346 39.1697 90.9121C38.3276 91.7053 37.5442 91.676 36.8293 90.7163C36.5943 90.4029 36.2809 90.1581 36.0165 89.8741C33.0494 86.8482 33.0004 86.8091 35.3506 83.3425C36.0851 82.2653 36.2711 81.4623 35.2919 80.5222C34.9589 80.1991 34.6651 79.7976 34.4791 79.3765C33.1277 76.2233 31.1202 74.2942 27.3795 75.4105C26.6744 75.6162 26.1946 75.2538 26.0183 74.5194C25.6266 72.933 25.2839 71.327 24.804 69.77C24.3634 68.3403 25.5091 68.1738 26.2925 67.8996C28.6231 67.0868 29.7101 65.7257 28.8288 63.1992C28.6525 62.7096 28.6819 62.1024 28.7602 61.5736C29.2009 58.8709 28.4567 56.9124 25.5972 56.1094C24.6278 55.8352 24.2067 55.2379 24.7159 54.1803C25.0097 53.5535 25.2055 52.8485 25.2839 52.163C25.5679 49.6267 26.4982 48.0795 29.4359 48.9706C30.3662 49.2546 31.0321 48.7846 31.4238 47.8249C31.9232 46.6008 32.4031 45.3082 33.1865 44.28C34.7533 42.2235 35.4192 40.3042 33.3236 38.2184C32.6773 37.5819 32.8927 37.0041 33.5292 36.4557C34.1755 35.8878 34.8414 35.31 35.3408 34.6343C36.7803 32.7052 38.2982 32.1274 40.1784 34.0566C40.9324 34.84 41.6179 34.5658 42.4013 33.9586C44.0562 32.6562 45.858 31.5399 47.797 30.7271C49.0504 30.1983 49.4225 29.4345 49.1287 28.181C48.6489 26.1638 49.4911 25.1062 51.5377 24.9299C51.998 24.8907 52.4582 24.7536 52.8891 24.5872C54.7595 23.8429 56.2773 23.8037 56.8845 26.2323C57.1978 27.5151 58.1575 27.7991 59.4207 27.6131C60.5762 27.4466 61.7905 27.2899 62.9167 27.4857C65.5215 27.9264 67.6758 27.7991 68.469 24.7145C68.7041 23.8135 69.3797 23.7842 70.1436 24.0094C71.6418 24.4501 73.1303 24.9005 74.6384 25.2726C75.2847 25.4293 75.7351 25.7525 75.5491 26.3596C74.4915 29.8458 76.8025 31.158 79.329 32.3722Z" fill="#FDFDFD"/>
<path d="M80.5538 57.6471C82.7571 68.3406 75.4715 77.5554 66.57 79.3964C56.2585 81.5311 46.2015 74.598 44.8208 63.5618C43.489 52.9467 51.4895 44.4957 61.0862 43.5948C63.27 43.3891 65.4537 43.4675 67.5787 44.1236C66.1979 45.8666 64.6311 47.4334 62.888 48.8142C55.6611 49.0296 50.0892 54.6016 50.2948 61.4074C49.8444 68.8791 57.4532 75.8123 64.1611 74.03C70.017 73.844 75.0112 68.8498 75.5009 62.7098C76.9893 60.8395 78.6639 59.1356 80.5538 57.6471Z" fill="#2D3238"/>
<path d="M50.2848 61.417C50.0792 54.6111 55.6413 49.0392 62.878 48.8237C58.8533 53.1912 54.6523 57.3824 50.2848 61.417Z" fill="#FDFDFD"/>
<path d="M75.4907 62.7197C75.0108 68.8695 70.0166 73.8637 64.1509 74.0399C67.7447 70.0837 71.5149 66.294 75.4907 62.7197Z" fill="#FDFDFD"/>
<path d="M109.579 20.5525C108.854 19.7104 108.139 18.7801 107.317 17.9575C104.281 14.8827 104.34 14.961 107.346 11.7784C108.57 10.476 109.363 10.3977 110.372 11.8274C110.685 12.268 111.146 12.5912 111.508 12.9927C112.428 14.0307 114.475 15.1471 114.122 15.999C113.457 17.5952 111.733 18.7507 110.44 20.0825C110.303 20.2196 110.078 20.2881 109.579 20.5525Z" fill="#FDFDFD"/>
<path d="M16.7155 111.389C14.9039 112.358 13.1216 113.308 10.8008 114.003C11.2512 112.965 11.545 112.221 11.878 111.506C13.7581 107.432 13.9148 107.432 16.7155 111.389Z" fill="#FDFDFD"/>
</svg>

<svg xmlns="http://www.w3.org/2000/svg" width="125" height="125" fill="none"><path d="M96.026 42.175c1.058 1.93 2.89.94 4.17.744 2.282-.343 2.997.52 3.447 2.517.803 3.574 1.763 7.11 2.772 10.625.39 1.37.166 2.154-1.185 2.703-1.224.5-2.4 1.146-3.555 1.763-1.273.676-1.322 1.45-.07 2.213.46.284.96.52 1.44.774 4.015 2.086 4.015 2.086 2.8 6.483l-2.262 8.343c-.402 1.665-.99 2.634-2.987 2.135-1.263-.313-2.634-.196-3.956-.284-1.48-.098-1.655.5-.9 1.635.9 1.36 1.724 2.78 2.664 4.123.627.89.744 1.528-.157 2.39-3.104 2.957-6.14 6.003-9.166 9.048-.666.676-1.195.774-1.998.186-1.45-1.048-3.006-1.96-4.495-2.957-1.058-.705-1.4-.274-1.34.803.098 1.87.157 3.74.343 5.6.098 1.01-.304 1.37-1.204 1.596l-12.2 3.202c-1.156.314-1.86.108-2.39-1.077-.823-1.83-1.812-3.574-2.957-5.797-1.185 2.223-2.252 4.064-3.163 5.983-.52 1.087-1 1.46-2.29 1.068-3.946-1.205-7.932-2.272-11.927-3.28-1.244-.313-1.655-.773-1.45-2.076.225-1.38.137-2.8.196-4.2.078-1.92-.636-2.086-1.968-.89-.41.04-.754.176-.88.617l.04-.02c-.313-.02-.52.088-.53.44l.02-.01c-.705-.108-1.204.353-1.635.754-1.577 1.45-2.654.95-3.966-.53-2.154-2.438-4.465-4.77-6.913-6.913-1.596-1.39-2.262-2.693-1.107-4.593l-.01.01c.392.04.47-.196.44-.52l-.01.03c.52-.118.627-.53.666-.97.402-.764 1.596-1.175 1.087-2.35-.578-1.302-1.753-.774-2.673-.744-4.514.157-4.514.186-5.7-4.318-.754-2.86-1.42-5.748-2.3-8.568-.45-1.45-.343-2.32 1.224-2.82.88-.284 1.694-.793 2.507-1.253 1.46-.832 1.488-2.34.088-3.192-.07-.04-.147-.06-.216-.098-4.25-2.39-4.25-2.39-2.977-7.04.764-2.78 1.616-5.533 2.262-8.343.343-1.49.96-2.154 2.517-1.763.597.147 1.244.117 1.86.186.92.098 1.606-.098 2.057-1.058.43-.89.636-1.557.02-2.546-2.174-3.506-2.135-3.545.783-6.434 2.213-2.193 4.524-4.3 6.66-6.58 1.077-1.146 1.84-1.185 3.124-.313.91.617 1.606 1.978 3.212 1.302 1.694-.715 2.115-1.95 1.772-3.535-.5-2.252.44-3.143 2.615-3.584 3.506-.715 6.982-1.626 10.4-2.683 1.577-.5 2.33-.078 2.83 1.332.127.362.362.686.51 1.048.402.96.793 1.694 2.125 1.714 1.332.01 1.93-.53 2.497-1.596 1.665-3.163 1.704-3.153 5.112-2.213 3.153.872 6.267 1.9 9.46 2.595 1.665.372 2.203 1.067 1.95 2.693-.303 1.96-.47 3.927 2.007 4.73-.95 1.635-2.38 2.82-3.82 3.986-2.517-1.214-4.838-2.526-3.76-6.013.186-.597-.264-.93-.91-1.087-1.508-.362-3.006-.823-4.495-1.263-.764-.225-1.45-.196-1.675.705-.793 3.085-2.948 3.222-5.552 2.77-1.126-.196-2.34-.04-3.496.127-1.263.186-2.213-.098-2.536-1.38-.597-2.428-2.115-2.39-3.995-1.645-.43.166-.9.303-1.35.343-2.056.176-2.89 1.234-2.41 3.25.294 1.253-.078 2.017-1.332 2.546-1.94.813-3.74 1.94-5.396 3.232-.783.607-1.47.88-2.223.098-1.88-1.94-3.398-1.35-4.838.578-.51.685-1.175 1.254-1.812 1.822-.636.558-.842 1.126-.206 1.763 2.096 2.086 1.43 4.005-.137 6.062-.783 1.028-1.263 2.32-1.763 3.545-.392.96-1.058 1.43-1.988 1.146-2.938-.89-3.868.656-4.152 3.192-.078.685-.264 1.39-.568 2.017-.51 1.067-.088 1.665.88 1.93 2.86.803 3.604 2.77 3.163 5.464-.088.53-.108 1.136.07 1.626.88 2.526-.206 3.888-2.536 4.7-.783.274-1.92.44-1.488 1.87.48 1.567.823 3.163 1.214 4.75.176.734.656 1.097 1.36.89 3.74-1.116 5.748.813 7.1 3.966.176.42.48.823.813 1.146.98.94.793 1.743.06 2.82-2.35 3.467-2.3 3.506.666 6.532.274.274.588.53.813.842.715.96 1.498 1 2.34.196 2.624-2.478 5.317-2.732 8.128-.313.176.147.4.255.627.313 1.557.41 1.92 1.37 1.812 2.948-.294 4.397-.166 4.27 3.995 5.592 2.056.656 3.036.137 3.613-1.772.852-2.82 2.615-3.73 5.66-3.73 2.693 0 4.21.636 4.975 3.153.176.588.607 1.097.813 1.674.333.92.842 1.058 1.802.862C76 98.54 76 98.57 75.922 93.135c0-.313.02-.627-.01-.94-.07-.695.216-1.087.823-1.488 4.75-3.134 4.77-3.202 9.41-.137 1.097.725 1.724.676 2.497-.264.44-.54.92-1.097 1.49-1.488 2.154-1.498 2.34-3.104.54-5.043-1.635-1.763-1.577-3.33-.313-5.64 1.616-2.948 3.437-3.937 6.55-3.24.646.147 1.704.617 2.056-.372.646-1.83 1.106-3.73 1.597-5.61.176-.685-.42-1.01-.91-1.156-3.692-1.087-5.25-3.378-4.22-7.217.06-.215.04-.48-.03-.695-.47-1.577.245-2.36 1.655-3.026 3.574-1.704 3.545-1.763 2.517-5.582-.04-.147-.108-.303-.108-.45-.118-2.125-1.302-2.78-3.25-2.33-2.066.48-3.623.04-4.27-2.203 1.195-1.528 2.517-2.928 4.084-4.074z" fill="#2d3238"/><path d="M96.026 42.174c-1.567 1.156-2.88 2.556-4.093 4.064-3.946 3.653-7.785 7.413-11.38 11.418-1.9 1.488-3.564 3.192-5.063 5.073-3.976 3.574-7.746 7.364-11.34 11.32-6.708 1.773-14.317-5.16-13.866-12.623a221.37 221.37 0 0 0 12.593-12.593 28.72 28.72 0 0 0 4.691-4.691 190.17 190.17 0 0 0 11.761-11.751c1.44-1.165 2.87-2.35 3.82-3.986 3.36-2.536 5.993-5.817 9.03-8.676 1.635-1.537 3.202-3.153 4.798-4.73l13.18 12.887c-4.73 4.73-9.636 9.303-14.13 14.287zM27.253 85.272c-1.155 1.9-.48 3.202 1.107 4.593 2.448 2.145 4.76 4.475 6.913 6.914 1.312 1.48 2.4 1.978 3.966.53.43-.392.93-.862 1.635-.754.098.666-.44.96-.803 1.322l-16 15.952-1.763-1.84c-3.633-3.8-7.628-7.266-11.026-11.3l14.483-14.523c.4-.4.705-1.097 1.498-.88z" fill="#f9c686"/><path d="M110.156 27.868L96.975 14.98c3.428-4.025 7.384-7.53 11.066-11.3 1.596-1.635 1.82 1 2.918 1 2.977 3.212 5.905 6.463 9.362 9.185 1.86 1.802 1.194 3.065-.568 4.632-3.33 2.977-6.405 6.238-9.597 9.38zm-.578-7.315c.5-.264.725-.333.872-.48 1.293-1.332 3.016-2.487 3.682-4.084.352-.842-1.694-1.968-2.615-3.006-.362-.41-.832-.735-1.136-1.165-1.018-1.43-1.8-1.342-3.026-.05-3.006 3.183-3.065 3.094-.03 6.18.813.832 1.528 1.763 2.252 2.605z" fill="#2a2f36"/><path d="M11.28 100.685c3.398 4.044 7.393 7.5 11.026 11.3l1.763 1.84L.45 125l-.45-.558 3.36-7.237c2.673-5.494 4.828-11.232 7.922-16.52zm5.435 10.703c-2.79-3.956-2.957-3.956-4.838.108-.333.725-.627 1.46-1.077 2.497 2.32-.685 4.103-1.635 5.915-2.605z" fill="#2d3238"/><path d="M120.32 13.855c-3.457-2.722-6.385-5.973-9.362-9.185 6.2-6.522 4.153-5.768 9.773-.48 1.136 1.067 2.214 2.203 3.32 3.3.95.94 1.01 1.85-.02 2.8l-3.712 3.564z" fill="#f34213"/><g fill="#d9a349"><path d="M28.34 83.822c-.04.45-.147.852-.666.97-.147-.568.245-.783.666-.97zM41.354 96.15c.127-.44.47-.578.88-.617-.166.382-.392.686-.88.617z"/><path d="M27.683 84.762c.03.323-.05.548-.44.52-.127-.4.06-.54.44-.52zm13.182 11.8c.01-.353.215-.46.53-.44-.02.333-.167.5-.53.44z"/></g><path d="M79.33 32.372c-3.75 4.084-7.668 8-11.76 11.75-2.125-.656-4.3-.734-6.492-.53-9.606.9-17.597 9.362-16.265 19.967 1.39 11.036 11.438 17.97 21.75 15.835 8.91-1.84 16.187-11.056 13.984-21.75 3.594-4.005 7.433-7.765 11.38-11.418.646 2.242 2.203 2.683 4.26 2.203 1.95-.46 3.134.206 3.25 2.33.01.157.07.303.108.45 1.028 3.81 1.057 3.878-2.517 5.582-1.4.666-2.125 1.45-1.655 3.026.07.215.088.48.03.695-1.028 3.84.53 6.13 4.22 7.217.5.147 1.097.47.91 1.156-.5 1.88-.95 3.8-1.596 5.61-.353.99-1.4.52-2.056.372-3.114-.695-4.935.294-6.55 3.24-1.273 2.32-1.322 3.888.313 5.64 1.802 1.94 1.616 3.545-.54 5.043-.568.392-1.048.95-1.49 1.488-.764.94-1.39 1-2.497.264-4.632-3.065-4.66-2.997-9.41.137-.607.4-.9.783-.823 1.49.03.313 0 .627.01.94.07 5.435.06 5.406-5.298 6.522-.95.196-1.47.07-1.802-.862-.206-.578-.636-1.087-.813-1.675-.764-2.517-2.272-3.153-4.975-3.153-3.055 0-4.818.91-5.66 3.73-.578 1.9-1.557 2.428-3.614 1.772-4.162-1.332-4.29-1.195-3.995-5.59.108-1.586-.264-2.546-1.812-2.948-.225-.06-.45-.166-.627-.313-2.8-2.42-5.503-2.164-8.128.313-.842.793-1.626.764-2.34-.196-.235-.313-.548-.558-.813-.842-2.967-3.026-3.016-3.065-.666-6.532.734-1.077.92-1.88-.06-2.82-.333-.323-.627-.725-.813-1.146-1.35-3.153-3.36-5.082-7.1-3.966-.705.206-1.185-.157-1.36-.89-.392-1.586-.734-3.192-1.214-4.75-.44-1.43.705-1.596 1.49-1.87 2.33-.813 3.418-2.174 2.536-4.7-.176-.5-.147-1.097-.07-1.626.44-2.703-.303-4.66-3.163-5.464-.97-.274-1.4-.87-.88-1.93a6.6 6.6 0 0 0 .568-2.017c.284-2.536 1.214-4.083 4.152-3.192.93.284 1.596-.186 1.988-1.146.5-1.224.98-2.517 1.763-3.545 1.567-2.056 2.233-3.976.137-6.062-.646-.637-.43-1.214.206-1.763.646-.568 1.312-1.146 1.812-1.82 1.44-1.93 2.957-2.507 4.838-.578.754.783 1.44.51 2.223-.098 1.655-1.302 3.457-2.42 5.396-3.23 1.253-.53 1.626-1.293 1.332-2.546-.48-2.017.362-3.075 2.41-3.25.46-.04.92-.176 1.35-.343 1.87-.744 3.388-.784 3.995 1.645.313 1.283 1.273 1.567 2.536 1.38 1.156-.166 2.37-.323 3.496-.127 2.605.44 4.76.313 5.552-2.77.235-.9.91-.93 1.675-.705 1.498.44 2.987.89 4.495 1.263.646.157 1.097.48.91 1.087-1.058 3.486 1.253 4.798 3.78 6.013z" fill="#fdfdfd"/><path d="M80.554 57.647c2.203 10.693-5.082 19.908-13.984 21.75-10.31 2.135-20.368-4.798-21.75-15.835-1.332-10.615 6.67-19.066 16.265-19.967 2.184-.206 4.368-.127 6.493.53a28.73 28.73 0 0 1-4.691 4.691c-7.227.215-12.8 5.787-12.593 12.593-.45 7.472 7.158 14.405 13.866 12.623 5.856-.186 10.85-5.18 11.34-11.32 1.488-1.87 3.163-3.574 5.053-5.063z" fill="#2d3238"/><path d="M50.285 61.417C50.08 54.6 55.64 49.04 62.878 48.824a221.37 221.37 0 0 1-12.593 12.593zM75.5 62.72c-.48 6.15-5.474 11.144-11.34 11.32 3.594-3.956 7.364-7.746 11.34-11.32zm34.1-42.167l-2.262-2.595c-3.036-3.075-2.977-2.996.03-6.18 1.224-1.302 2.017-1.38 3.026.05.313.44.774.764 1.136 1.165.92 1.038 2.967 2.154 2.614 3.006-.665 1.596-2.4 2.752-3.682 4.083-.137.137-.362.206-.86.47zM16.716 111.4c-1.812.97-3.594 1.92-5.915 2.614l1.077-2.497c1.88-4.074 2.037-4.074 4.837-.117z" fill="#fdfdfd"/></svg>
